X: 21940
T: Kitty Goes A-Milking
R: reel
M: 4/4
K: Dmajor
|FG|AD D2 A2 GE|AD D2 CDEG|AD D2 A2 (3Bcd|cAGE D2 FG|
AD D2 A2 GE|AD D2 CDEG|AD D2 A2 Bd|cAGE DEFG|
Ad d2 ed d2|Addc A2 FG|Ad d2 ed d2|AGEF G2 FG|
Ad d2 ed d2|Addc A2 FG|ABcd e3 d|cAGE D4|

